X: 41175
T: Tripping Up The Stairs
R: jig
M: 6/8
K: Dmajor
FAA GBB|FAd fed|cBc ABc|dfe dAG|
FAA GBB|FAd fed|cBc ABc|dfe dAG|
FAA GBB|FAd fed|cBc ABc|dfe dAG|
FAA GBB|FAd fed|cBc ABc|dfe dec|
dBB fBB|fgf fed|cAe cAc|efe edc|
dBB fBB|fgf fed|cBc ABc|dfe dec|
dBB fBB|fgf fed|cAA ecA|a2a ecB|
dBB fBB|fgf fed|cBc ABc|dfe d3|

